client/public/assets/icons/action/manage_perm_sets.svg

<?xml version="1.0"?><svg xmlns="http://www.w3.org/2000/svg" width="52" height="52" viewBox="0 0 52 52"><path fill="#fff" d="m45 2h-38c-2.8 0-5 2.2-5 5v38c0 2.7 2.2 5 5 5h38c2.7 0 5-2.2 5-5v-38c0-2.8-2.2-5-5-5z m-1.6 43h-34.8c-0.9 0-1.6-0.7-1.6-1.6v-34.8c0-0.9 0.7-1.6 1.6-1.6h34.8c0.9 0 1.6 0.7 1.6 1.6v34.8c0 0.9-0.7 1.6-1.6 1.6z m-21.5-33.1h-8.3c-0.9 0-1.7 0.7-1.7 1.7v8.3c0 0.9 0.7 1.7 1.7 1.7h8.3c0.9 0 1.7-0.7 1.7-1.7v-8.3c-0.1-0.9-0.8-1.7-1.7-1.7z m16.5 0h-8.3c-0.9 0-1.7 0.7-1.7 1.7v8.3c0 0.9 0.7 1.7 1.7 1.7h8.3c0.9 0 1.7-0.7 1.7-1.7v-8.3c0-0.9-0.8-1.7-1.7-1.7z m-16.5 16.6h-8.3c-0.9 0-1.7 0.7-1.7 1.7v8.3c0 0.9 0.7 1.7 1.7 1.7h8.3c0.9 0 1.7-0.7 1.7-1.7v-8.3c-0.1-1-0.8-1.7-1.7-1.7z m16.5 0h-8.3c-0.9 0-1.7 0.7-1.7 1.7v8.3c0 0.9 0.7 1.7 1.7 1.7h8.3c0.9 0 1.7-0.7 1.7-1.7v-8.3c0-1-0.8-1.7-1.7-1.7z"></path></svg>

<?xml version="1.0" encoding="utf-8"?>
<!-- Generator: Adobe Illustrator 18.1.1, SVG Export Plug-In . SVG Version: 6.00 Build 0)  -->
<svg version="1.1" id="Layer_1" xmlns="http://www.w3.org/2000/svg" xmlns:xlink="http://www.w3.org/1999/xlink" x="0px" y="0px"
	 width="52px" height="52px" viewBox="0 0 52 52" enable-background="new 0 0 52 52" xml:space="preserve">
<g>
	<g>
		<path fill="#FFFFFF" d="M45,2H7C4.2,2,2,4.2,2,7V45c0,2.7,2.2,5,5,5H45c2.7,0,5-2.2,5-5V7C50,4.2,47.8,2,45,2z M43.4,45H8.6
			C7.7,45,7,44.3,7,43.4V8.6C7,7.7,7.7,7,8.6,7h34.8C44.3,7,45,7.7,45,8.6v34.8C45,44.3,44.3,45,43.4,45z"/>
	</g>
	<g>
		<path fill="#FFFFFF" d="M21.9,11.9h-8.3c-0.9,0-1.7,0.7-1.7,1.7v8.3c0,0.9,0.7,1.7,1.7,1.7h8.3c0.9,0,1.7-0.7,1.7-1.7v-8.3
			C23.5,12.7,22.8,11.9,21.9,11.9z"/>
	</g>
	<g>
		<path fill="#FFFFFF" d="M38.4,11.9h-8.3c-0.9,0-1.7,0.7-1.7,1.7v8.3c0,0.9,0.7,1.7,1.7,1.7h8.3c0.9,0,1.7-0.7,1.7-1.7v-8.3
			C40.1,12.7,39.3,11.9,38.4,11.9z"/>
	</g>
	<g>
		<path fill="#FFFFFF" d="M21.9,28.5h-8.3c-0.9,0-1.7,0.7-1.7,1.7v8.3c0,0.9,0.7,1.7,1.7,1.7h8.3c0.9,0,1.7-0.7,1.7-1.7v-8.3
			C23.5,29.2,22.8,28.5,21.9,28.5z"/>
	</g>
	<g>
		<path fill="#FFFFFF" d="M38.4,28.5h-8.3c-0.9,0-1.7,0.7-1.7,1.7v8.3c0,0.9,0.7,1.7,1.7,1.7h8.3c0.9,0,1.7-0.7,1.7-1.7v-8.3
			C40.1,29.2,39.3,28.5,38.4,28.5z"/>
	</g>
</g>
</svg>
